src/assets/duotone/Ranking1.svg

<svg width="24" height="24" viewBox="0 0 24 24"  xmlns="http://www.w3.org/2000/svg">
<path d="M13.3 8.10961L14.62 10.7496C14.8 11.1096 15.28 11.4696 15.68 11.5296L18.07 11.9296C19.6 12.1896 19.96 13.2896 18.86 14.3896L17 16.2496C16.69 16.5596 16.51 17.1696 16.61 17.6096L17.14 19.9196C17.56 21.7396 16.59 22.4496 14.98 21.4996L12.74 20.1696C12.33 19.9296 11.67 19.9296 11.26 20.1696L9.01996 21.4996C7.40996 22.4496 6.43995 21.7396 6.85995 19.9196L7.38998 17.6096C7.48998 17.1796 7.30997 16.5696 6.99997 16.2496L5.13998 14.3896C4.03998 13.2896 4.39996 12.1796 5.92996 11.9296L8.31997 11.5296C8.71997 11.4596 9.19997 11.1096 9.37997 10.7496L10.7 8.10961C11.41 6.67961 12.59 6.67961 13.3 8.10961Z" />
<path opacity="0.4" d="M6 9.75C5.59 9.75 5.25 9.41 5.25 9V2C5.25 1.59 5.59 1.25 6 1.25C6.41 1.25 6.75 1.59 6.75 2V9C6.75 9.41 6.41 9.75 6 9.75Z" />
<path opacity="0.4" d="M18 9.75C17.59 9.75 17.25 9.41 17.25 9V2C17.25 1.59 17.59 1.25 18 1.25C18.41 1.25 18.75 1.59 18.75 2V9C18.75 9.41 18.41 9.75 18 9.75Z" />
<path opacity="0.4" d="M12 4.75C11.59 4.75 11.25 4.41 11.25 4V2C11.25 1.59 11.59 1.25 12 1.25C12.41 1.25 12.75 1.59 12.75 2V4C12.75 4.41 12.41 4.75 12 4.75Z" />
</svg>

<?xml version="1.0" encoding="UTF-8"?>
<svg width="24" height="24" viewBox="0 0 24 24" xmlns="http://www.w3.org/2000/svg">
 <path d="m13.3 8.1096 1.32 2.64c0.18 0.36 0.66 0.72 1.06 0.78l2.39 0.4c1.53 0.26 1.89 1.36 0.79 2.46l-1.86 1.86c-0.31 0.31-0.49 0.92-0.39 1.36l0.53 2.31c0.42 1.82-0.55 2.53-2.16 1.58l-2.24-1.33c-0.41-0.24-1.07-0.24-1.48 0l-2.24 1.33c-1.61 0.95-2.58 0.24-2.16-1.58l0.53003-2.31c0.1-0.43-0.08001-1.04-0.39001-1.36l-1.86-1.86c-1.1-1.1-0.74002-2.21 0.78998-2.46l2.39-0.4c0.4-0.07 0.88-0.42 1.06-0.78l1.32-2.64c0.71-1.43 1.89-1.43 2.6 0z"/>
 <path d="m6 9.75c-0.41 0-0.75-0.34-0.75-0.75v-7c0-0.41 0.34-0.75 0.75-0.75s0.75 0.34 0.75 0.75v7c0 0.41-0.34 0.75-0.75 0.75z" opacity=".4"/>
 <path d="m18 9.75c-0.41 0-0.75-0.34-0.75-0.75v-7c0-0.41 0.34-0.75 0.75-0.75s0.75 0.34 0.75 0.75v7c0 0.41-0.34 0.75-0.75 0.75z" opacity=".4"/>
 <path d="m12 4.75c-0.41 0-0.75-0.34-0.75-0.75v-2c0-0.41 0.34-0.75 0.75-0.75s0.75 0.34 0.75 0.75v2c0 0.41-0.34 0.75-0.75 0.75z" opacity=".4"/>
</svg>
